X:3456
T:Ladie's Pantalettes, The
T:Duke of Leinster's Wife, The
O:england
R:reel
D:Planxty
M:C|
K:G
BdcA ~G3B|AF~F2 cFAF|BdcA G2ge|1 fdcA dBcA:|2 fdcA AG~G2||
|:fgaf g2fg|~a3g fdde|1 fgaf g2ag|fdcA AG~G2:|2 ~f3g ~a3g|fdcA dBcA||
"Version of 1st part"
|:BdcA ~G3B|A=F~F2 cFAF|BdcA G2ge|1 fdcA dBcA:|2 fdcA AG~G2||


